X:4
T:Halling efter Per L\"of
T:Halling fr{\aa}n Eksh\"arad
R:halling
O:V\"armland, Eksh\"arad
Z:id:hn-halling-4
M:2/4
L:1/8
K:Ddor
A/a/g/b/ a2 | a/g/e/g/ f>e | fa/g/ eg/f/ | d/f/e/d/ ^cA- | 
A/a/g/b/ a2 | a/g/e/g/ f>e | fa/g/ eg/f/ | d/f/e/^c/ d2 :|
|: Ad/^c/ de- | ef/e/ fe/^c/ | Ad/^c/ de/g/ | f/e/d/^c/ dA/F/ | 
Dd/^c/ de- | ef/e/ fe/^c/ | Ad/^c/ de/g/ | f/e/d/^c/ d2 :|

